svg/Pictogram/pictograms-nps-misc-radio.svg

<svg xmlns="http://www.w3.org/2000/svg" viewBox="0 0 256 256"><path d="m0 0c-.541 0-.981-.44-.981-.981v-7.522c0-.541.44-.981.981-.981h7.521c.542 0 .982.44.982.981v7.522c0 .541-.44.981-.982.981h-7.521" fill="#fff" transform="matrix(25.89783 0 0-25.89783 30.598 5.19)"/><path d="m0 0c.652 0 1.182.529 1.182 1.182v7.521c0 .652-.53 1.182-1.182 1.182h-7.521c-.653 0-1.182-.53-1.182-1.182v-7.521c0-.653.529-1.182 1.182-1.182h7.521" transform="matrix(25.89783 0 0-25.89783 225.39 256)"/><path d="m0 0c.621 0 1.127.504 1.127 1.125 0 .623-.506 1.127-1.127 1.127-.623 0-1.127-.504-1.127-1.127 0-.621.504-1.125 1.127-1.125m-4.492 0c.621 0 1.127.504 1.127 1.125 0 .623-.506 1.127-1.127 1.127-.623 0-1.127-.504-1.127-1.127 0-.621.504-1.125 1.127-1.125m3.09 2.242h-1.684v-1.123h1.684v1.123zm1.113 1.192h-3.896v-.727h3.896v.727m.449-.727h1.299v-3.062h-7.424v3.062h1.33l.002.66c0 .248.199.449.447.449h3.895c.246 0 .447-.201.447-.449l.004-.66" fill="#fff" transform="matrix(25.89783 0 0-25.89783 185.58 166.42)"/></svg>

<?xml version="1.0" encoding="UTF-8" standalone="no"?>
<!-- Created with Inkscape (http://www.inkscape.org/) -->
<svg
   xmlns:dc="http://purl.org/dc/elements/1.1/"
   xmlns:cc="http://creativecommons.org/ns#"
   xmlns:rdf="http://www.w3.org/1999/02/22-rdf-syntax-ns#"
   xmlns:svg="http://www.w3.org/2000/svg"
   xmlns="http://www.w3.org/2000/svg"
   xmlns:sodipodi="http://sodipodi.sourceforge.net/DTD/sodipodi-0.dtd"
   xmlns:inkscape="http://www.inkscape.org/namespaces/inkscape"
   width="256"
   height="256"
   id="svg5294"
   sodipodi:version="0.32"
   inkscape:version="0.46"
   version="1.0"
   sodipodi:docname="pictograms-nps-misc-radio-2.svg"
   inkscape:output_extension="org.inkscape.output.svg.inkscape">
  <defs
     id="defs5296">
    <inkscape:perspective
       sodipodi:type="inkscape:persp3d"
       inkscape:vp_x="0 : 526.18109 : 1"
       inkscape:vp_y="0 : 1000 : 0"
       inkscape:vp_z="744.09448 : 526.18109 : 1"
       inkscape:persp3d-origin="372.04724 : 350.78739 : 1"
       id="perspective5302" />
  </defs>
  <sodipodi:namedview
     id="base"
     pagecolor="#ffffff"
     bordercolor="#666666"
     borderopacity="1.0"
     gridtolerance="10000"
     guidetolerance="10"
     objecttolerance="10"
     inkscape:pageopacity="0.0"
     inkscape:pageshadow="2"
     inkscape:zoom="0.98994949"
     inkscape:cx="112.80911"
     inkscape:cy="62.857143"
     inkscape:document-units="px"
     inkscape:current-layer="layer1"
     showgrid="false"
     inkscape:window-width="725"
     inkscape:window-height="674"
     inkscape:window-x="1"
     inkscape:window-y="309" />
  <metadata
     id="metadata5299">
    <rdf:RDF>
      <cc:Work
         rdf:about="">
        <dc:format>image/svg+xml</dc:format>
        <dc:type
           rdf:resource="http://purl.org/dc/dcmitype/StillImage" />
      </cc:Work>
    </rdf:RDF>
  </metadata>
  <g
     inkscape:label="Layer 1"
     inkscape:groupmode="layer"
     id="layer1">
    <g
       id="g4802"
       transform="matrix(25.897825,0,0,-25.897825,30.598177,5.1899241)">
      <path
         d="M 0,0 C -0.541,0 -0.981,-0.44 -0.981,-0.981 L -0.981,-8.503 C -0.981,-9.044 -0.541,-9.484 0,-9.484 L 7.521,-9.484 C 8.063,-9.484 8.503,-9.044 8.503,-8.503 L 8.503,-0.981 C 8.503,-0.44 8.063,0 7.521,0 L 0,0 z"
         style="fill:#ffffff;fill-opacity:1;fill-rule:nonzero;stroke:none"
         id="path4804" />
    </g>
    <g
       id="g4806"
       transform="matrix(25.897825,0,0,-25.897825,225.38877,256)">
      <path
         d="M 0,0 C 0.652,0 1.182,0.529 1.182,1.182 L 1.182,8.703 C 1.182,9.355 0.652,9.885 0,9.885 L -7.521,9.885 C -8.174,9.885 -8.703,9.355 -8.703,8.703 L -8.703,1.182 C -8.703,0.529 -8.174,0 -7.521,0 L 0,0 z"
         style="fill:#000000;fill-opacity:1;fill-rule:nonzero;stroke:none"
         id="path4808" />
    </g>
    <g
       id="g4810"
       transform="matrix(25.897825,0,0,-25.897825,185.58091,166.41942)">
      <path
         d="M 0,0 C 0.621,0 1.127,0.504 1.127,1.125 C 1.127,1.748 0.621,2.252 0,2.252 C -0.623,2.252 -1.127,1.748 -1.127,1.125 C -1.127,0.504 -0.623,0 0,0 M -4.492,0 C -3.871,0 -3.365,0.504 -3.365,1.125 C -3.365,1.748 -3.871,2.252 -4.492,2.252 C -5.115,2.252 -5.619,1.748 -5.619,1.125 C -5.619,0.504 -5.115,0 -4.492,0 M -1.402,2.242 L -3.086,2.242 L -3.086,1.119 L -1.402,1.119 L -1.402,2.242 z M -0.289,3.434 L -4.185,3.434 L -4.185,2.707 L -0.289,2.707 L -0.289,3.434 z M 0.16,2.707 L 1.459,2.707 L 1.459,-0.355 L -5.965,-0.355 L -5.965,2.707 L -4.635,2.707 L -4.633,3.367 C -4.633,3.615 -4.434,3.816 -4.186,3.816 L -0.291,3.816 C -0.045,3.816 0.156,3.615 0.156,3.367 L 0.16,2.707 z"
         style="fill:#ffffff;fill-opacity:1;fill-rule:nonzero;stroke:none"
         id="path4812" />
    </g>
  </g>
</svg>
